X:1
T:Title
%%score { ( 1 4 ) | ( 2 3 ) }
L:1/8
M:3/4
K:Eb
V:1 treble nm="Grand Piano"
V:4 treble 
V:2 treble 
V:3 treble 
V:1
 z2 z2[Q:1/4=94] B>=A | [Ac]2 B2 G>F | [FA]>G G2 F>=E | [DF]3 c B>=A |[M:2/4] [GB]2 G2 | %5
[M:1/4] B>=A |[M:3/4] [Ac]2 B2 G>F | [FA]>G G2 G2 | [DF]3 A GF |[M:2/4] G4 |[M:1/4] (3Bcd | %11
[M:3/4] [Ge]>[GB] [EG]2 [Ge]2 | [Ad]2 [Ac]2 F>G | [FA]-[B,F-A-] [B,FA][Ac] [GB]>[_G=A] | %14
[M:2/4] [GB]2 G2 |[M:1/4] (3Bcd |[M:3/4] [Ge]>[GB] [EG]2 [Ge]2 | [Ad]>[Ac] [CF]2 [CFA]>[Ac] | %18
 [GB]>[FA] [EG]2 [DF]2 |[M:2/4] E4 |] %20
V:2
 z2 z2 G>_G | z2 G2 E>D | z z/ E/ E2 D>_D | z2 z[K:treble] A G>_G |[M:2/4][K:bass] z2 E2 | %5
[M:1/4][K:treble] G>_G |[M:3/4] z2 G2 E>D | z z/ E/ E2 E>E | z2 z[K:treble] F ED |[M:2/4] [E,E]4 | %10
[M:1/4] (3B,-[B,=A][B,_A] |[M:3/4][K:bass] [E,B,]>[E,B,] [E,B,]2 [E,B,]2 | [A,,A,]2 [A,,A,]2 D>E | %13
 B,,B,, B,,[B,,B,] [B,,B,]>[B,,B,] |[M:2/4] z2[K:treble] E2 |[M:1/4] (3B,-[B,=A][B,_A] | %16
[M:3/4][K:bass] [E,B,]>[E,B,] [E,B,]2 [E,B,]2 | [A,,A,]>[A,,A,] A,,2 A,,>[A,,A,] | %18
 [B,,F,]>[B,,B,] [B,,B,]2 [B,,A,]2 |[M:2/4] [E,G,]4 |] %20
V:3
 x6 | E,6 | E,6 | B,,6[K:treble] |[M:2/4][K:bass] E,4 |[M:1/4][K:treble] x2 |[M:3/4] E,6 | E,6 | %8
 B,,6[K:treble] |[M:2/4] x4 |[M:1/4] x2 |[M:3/4][K:bass] x6 | x6 | x6 |[M:2/4] E,4[K:treble] | %15
[M:1/4] x2 |[M:3/4][K:bass] x6 | x6 | x6 |[M:2/4] x4 |] %20
V:4
 x6 | x6 | x6 | x6 |[M:2/4] x4 |[M:1/4] x2 |[M:3/4] x6 | x6 | x6 |[M:2/4] x4 |[M:1/4] x2 | %11
[M:3/4] x6 | x6 | .B,2 z2 z2 |[M:2/4] B,4 |[M:1/4] x2 |[M:3/4] x6 | x6 | x6 |[M:2/4] x4 |] %20

